X:1
T:Sawley, CM
T:James Walch, 1860
T:Sawley, CM
T:Public Domain
C:James Walch, 1860
Z:Public Domain
%%score ( 1 2 ) ( 3 4 )
L:1/8
M:3/4
K:Bb
V:1 treble 
V:2 treble 
V:3 bass 
V:4 bass 
V:1
 [DB]2 [FA]2 [EG]2 | [DF]4 D2 | ([CE]2 [EA]2) [EG]2 | [DF]6 | [Fd]2 [Fc]2 [FB]2 | (A2 B2) [=EG]2 | %6
 F6 | [FB]2 [FA]2 [EG]2 | (E2 D2) [B,D]2 | (E2 A2) [CG]2 | [DF]6 | G2 [_GA]2 [FB]2 | %12
 (F2 =E2) [_Ec]2 | [DB]6 |] %14
V:2
 x6 | x4 D2 | x6 | x6 | x6 | F4 x2 | F6 | x6 | F4 x2 | E4 x2 | x6 | _G2 x4 | d4 x2 | x6 |] %14
V:3
 [B,,B,]2 [B,,B,]2 [B,,B,]2 | [B,,B,]4 [B,,B,]2 | (A,2 C2) [F,A,]2 | [B,,B,]6 | %4
 [B,,B,]2 [C,A,]2 [D,B,]2 | (C2 D2) [C,B,]2 | (F,4 E,2) | [D,B,]2 [D,B,]2 [E,B,]2 | %8
 [B,,B,]4 [_A,B,]2 | ([G,B,]2 [F,C]2) [E,A,]2 | [D,B,]6 | [E,B,]2 [E,C]2 [D,D]2 | %12
 (B,2 G,2) [F,A,]2 | [B,,B,]6 |] %14
V:4
 x6 | x6 | F,4 x2 | x6 | x6 | C,4 x2 | A,6 | x6 | x6 | x6 | x6 | x6 | F,4 x2 | x6 |] %14

